X: 2164
T:Sher
O:N.Africa
M:4/4
K:CMix
c4 cBAB|_d2c2 c4|BffB BffB|Bff_d dccB|\
c4 cBAB|_d2c2 c2gf|
efgf e2_d2 |1 c_def edc2:|2 c8|:\
e3c f3c|g_agf g4|_a2gf g2fe|f2e_d e2dc|
e3c f3c|g6 b_a|g_ag2 f2e_d|c8::\
D3F _E2D2|F2z2 z2B_A|
_AGGF F2E2|EGF2 DCB,2|\
D3F _E2D2|_E2z2 z2GF|EFE2 _D2CB,|C4 z4:|
